domfk/img/icons/phone-medium.svg

<svg width="28" height="27" viewBox="0 0 28 27" fill="none" xmlns="http://www.w3.org/2000/svg">
<path d="M21.8098 15.7262C20.6989 15.7262 19.6081 15.5525 18.5744 15.2109C18.068 15.0381 17.4453 15.1966 17.1362 15.5141L15.096 17.0542C12.7299 15.7912 11.2725 14.3342 10.0267 11.9859L11.5215 9.99889C11.9099 9.61105 12.0492 9.04449 11.8823 8.5129C11.5393 7.47382 11.365 6.38357 11.365 5.2722C11.365 4.46933 10.7119 3.81616 9.90906 3.81616H6.57683C5.77402 3.81616 5.12085 4.46933 5.12085 5.27215C5.12085 14.4745 12.6074 21.9611 21.8098 21.9611C22.6126 21.9611 23.2657 21.3079 23.2657 20.5051V17.1821C23.2657 16.3794 22.6125 15.7262 21.8098 15.7262Z" fill="#FF0000"/>
</svg>

<svg width="28" height="27" fill="none" xmlns="http://www.w3.org/2000/svg"><path d="M21.81 15.726c-1.111 0-2.202-.174-3.236-.515-.506-.173-1.129-.014-1.438.303l-2.04 1.54c-2.366-1.263-3.823-2.72-5.07-5.068l1.495-1.987c.389-.388.528-.955.361-1.486a10.32 10.32 0 01-.517-3.24c0-.804-.653-1.457-1.456-1.457H6.577c-.803 0-1.456.653-1.456 1.456 0 9.203 7.486 16.69 16.689 16.69.803 0 1.456-.654 1.456-1.457v-3.323c0-.803-.653-1.456-1.456-1.456z" fill="red"/></svg>
